train-car-centerbeam.svg

<svg fill="currentColor" viewBox="0 0 24 24"><path d="M23 6v11h-1c0 1.11-.89 2-2 2s-2-.89-2-2H6c0 1.11-.89 2-2 2s-2-.89-2-2H1V6h2v9h18V6z"/></svg>

<svg  viewBox="0 0 24 24" fill="currentColor"><path  d="M23 6V17H22C22 18.11 21.11 19 20 19S18 18.11 18 17H6C6 18.11 5.11 19 4 19S2 18.11 2 17H1V6H3V15H21V6H23Z"/></svg>
